frontend/public/svg/hand gestures/3-scroll-down.svg

<svg width="114" height="154" viewBox="0 0 114 154" fill="none" xmlns="http://www.w3.org/2000/svg">
<g clip-path="url(#clip0)">
<path d="M6.79015 94.7179C7.3677 95.243 7.96497 95.7871 8.48676 96.3653C9.40104 97.3781 10.36 98.3875 11.2874 99.3635C13.7996 101.856 16.0875 104.564 18.1245 107.457C20.2376 110.812 22.1597 114.284 23.8812 117.856C24.8546 119.781 25.8602 121.772 26.9149 123.694C29.6866 128.742 32.2068 133.276 34.993 137.678C36.322 139.665 37.9717 141.416 39.8748 142.863C44.0682 146.137 48.7626 148.714 53.7768 150.494C58.4049 152.235 63.309 153.125 68.2535 153.125C74.0792 153.056 79.8491 151.974 85.3045 149.929C90.2481 148.064 94.7381 145.17 98.4772 141.437C102.216 137.704 105.118 133.219 106.991 128.278C112.116 114.963 114.104 100.532 113.068 84.1614C112.806 81.3267 112.071 78.5563 110.891 75.9664C110.28 74.5027 109.375 73.1802 108.231 72.0821C107.087 70.9834 105.73 70.1322 104.243 69.5815C102.684 69.0138 101.026 68.7735 99.3705 68.8753C97.7159 68.977 96.0993 69.4181 94.6219 70.1722C94.2531 70.3547 93.877 70.5227 93.4182 70.7275L93.1169 70.8633L93.1911 69.3485C93.2607 67.9643 93.3224 66.6798 93.3742 65.3939C93.4274 64.0143 93.4851 62.6342 93.5468 61.2538C93.917 52.6702 94.3003 43.7952 93.0762 35.0731C92.416 30.3672 91.5942 25.8187 88.835 21.9142C88.1012 20.8605 87.1574 19.9699 86.0626 19.2982C84.9685 18.6265 83.7471 18.1882 82.4751 18.0108C81.2037 17.8333 79.9088 17.9207 78.6722 18.2672C77.4357 18.6137 76.2845 19.212 75.2901 20.0246C74.8064 20.4131 74.3621 20.8358 73.9328 21.2441L73.69 21.4744C73.3297 20.8109 72.9792 20.1512 72.632 19.4962C71.6921 17.7241 70.8041 16.0524 69.7782 14.4188C67.9182 11.4567 64.9673 10.2839 61.2399 11.0334C59.7445 11.311 58.3329 11.9282 57.1136 12.8374C55.8943 13.7466 54.9001 14.9235 54.2074 16.2775C53.2518 18.1674 52.4016 20.1088 51.6607 22.0927C51.3981 22.749 51.1396 23.4126 50.8731 24.0689C50.7419 23.8596 50.6105 23.6469 50.4793 23.4336C49.9288 22.5034 49.3264 21.605 48.675 20.7426C46.1258 17.5016 42.7744 16.7783 38.9874 18.6496C37.7206 19.2468 36.6002 20.1147 35.7052 21.192C34.8102 22.2693 34.1625 23.5299 33.8077 24.8848C33.2986 26.6335 32.9879 28.434 32.8815 30.2522C32.8268 31.452 32.7705 32.6516 32.7123 33.851C32.4268 39.8401 32.1307 46.0326 32.1353 52.1274C32.1405 59.3333 32.312 66.3961 32.4931 73.8733C32.5635 76.7848 32.631 79.7206 32.6958 82.6807L32.4688 82.4766C32.0633 82.0979 31.6379 81.7408 31.1942 81.4081C24.5724 76.6476 17.5423 74.9497 10.2891 76.3634C8.63759 76.6352 7.0843 77.3296 5.78001 78.3791C4.47574 79.4279 3.4647 80.7963 2.84491 82.3512C2.24675 84.0091 2.08051 85.7917 2.36195 87.5317C2.6434 89.271 3.36322 90.9105 4.45355 92.2954C5.15373 93.1749 5.93615 93.9861 6.79015 94.7179ZM38.3541 65.5679C38.3128 63.7957 38.236 61.9882 38.1618 60.2436C38.026 57.0276 37.8848 53.7019 37.9596 50.4406C38.1125 43.7879 38.5241 37.0264 38.9212 30.4879L39.0353 28.6069C39.1889 26.0649 39.7928 23.6016 43.1165 22.7536C45.2601 24.3354 46.5748 26.6805 47.1327 29.9176C47.9721 34.6494 48.5683 39.4211 48.9191 44.2139C49.3694 50.8035 49.7113 57.5133 50.0415 64.0018C50.2134 67.371 50.3903 70.7419 50.5719 74.1142C50.6151 74.8217 50.7805 75.5161 51.0608 76.1672C51.3062 76.8301 51.7938 77.3749 52.4252 77.6925C53.0566 78.0095 53.7849 78.0765 54.4632 77.8783C55.1039 77.7811 55.6822 77.4398 56.0772 76.9259C56.4721 76.412 56.6532 75.7655 56.5826 75.1217C56.5662 74.2028 56.5865 73.2622 56.6049 72.3526C56.6729 70.6841 56.6401 69.0138 56.5065 67.3499C55.5436 57.8329 56.0772 48.1677 56.5938 38.8175L56.6659 37.5008C56.6994 36.899 56.7315 36.2965 56.7604 35.6933C56.8577 32.8312 57.0988 29.9758 57.4824 27.1379C57.921 24.8618 58.5972 22.638 59.5 20.5031L59.6162 20.1998C60.0346 19.343 60.6466 18.5955 61.404 18.0162C62.2054 17.3323 62.8244 17.0481 63.2931 17.1518C63.742 17.2489 64.1567 17.7182 64.5611 18.5859L64.9023 19.3144C65.9216 21.4803 66.9756 23.7237 67.3307 26.0091C68.289 31.7466 68.8987 37.5369 69.1567 43.3481C69.5721 56.2839 69.242 66.1159 68.0862 75.2293C68.0566 75.505 68.0435 75.7826 68.0468 76.0602C68.0468 76.2387 68.0435 76.4173 68.0284 76.6509C67.9293 78.1487 67.8171 79.8466 69.8386 80.5784C71.3823 81.137 73.9926 80.501 75.0486 78.8437C75.68 77.8612 76.0817 76.7494 76.2228 75.5903L76.2812 75.0153C76.6415 72.0736 76.8201 69.1135 76.8161 66.15C76.6678 59.5578 76.4381 52.8578 76.2162 46.3784C76.085 42.5437 75.9589 38.7087 75.8375 34.8736C75.6885 31.5601 76.7262 28.3021 78.7635 25.6848C79.0687 25.2195 79.4933 24.8449 79.9935 24.6005C80.4929 24.3561 81.0495 24.2509 81.6041 24.296C82.1003 24.4113 82.5558 24.6606 82.9201 25.0167C83.285 25.3727 83.5449 25.822 83.6716 26.3156C84.8865 29.5387 85.6918 32.9017 86.0685 36.3254C86.5319 42.2895 86.547 48.2109 86.5201 54.7776C86.4971 60.3781 86.3698 66.0739 86.2464 71.58C86.1886 74.1614 86.1342 76.7441 86.083 79.3288C86.0528 80.9473 86.312 82.5645 88.392 83.4348C91.039 84.5414 92.158 84.2283 93.5961 81.9705C93.9328 81.4422 94.2452 80.8968 94.5576 80.3513C95.0072 79.5322 95.5014 78.7381 96.037 77.9728C97.6404 75.774 99.4434 74.6688 101.107 74.8545C102.771 75.0403 104.261 76.5046 105.323 78.9757C107.431 84.0308 108.189 89.5473 107.523 94.9844C106.858 101.228 105.886 107.992 104.465 116.27C103.517 121.794 101.112 127.314 97.3168 132.673C93.9223 137.464 88.7326 140.996 81.8929 143.164C68.8416 147.298 56.1795 145.086 44.2578 136.587C43.089 135.783 42.0709 134.78 41.2504 133.623C39.4829 130.998 37.4319 127.864 35.6171 124.5C33.0935 119.82 30.5916 114.877 28.1828 109.81C23.9127 100.826 18.6128 93.9697 11.9713 88.8384C11.8977 88.7853 11.8285 88.7262 11.764 88.6626C11.5461 88.4309 11.317 88.2031 11.0873 87.976C9.82845 86.729 8.6391 85.5535 9.25605 83.5838C9.93208 81.4245 11.8813 81.0759 13.9363 81.0759C14.023 81.0759 14.1103 81.0759 14.1989 81.0759C21.4758 81.1711 26.8768 83.9061 30.2523 89.2047C30.8347 90.2489 31.2625 91.3719 31.5224 92.5389C31.6116 92.8611 31.7001 93.1821 31.7946 93.4978C32.2232 94.9345 32.9314 96.4323 34.9326 96.6416C36.5662 96.8149 38.0207 95.5725 38.5458 93.5569C38.79 92.55 38.8956 91.5143 38.8595 90.4786C38.7112 82.0112 38.5419 73.6304 38.3541 65.5679Z" fill="black"/>
<path d="M9.24349 31.4879C9.05512 31.3179 8.87653 31.1544 8.70589 30.9969C8.12831 30.4344 7.50689 29.9189 6.84726 29.4552C5.93296 28.7465 4.86552 28.2614 3.73029 28.0389C3.20131 28.0186 2.67453 28.1176 2.18896 28.3285C1.70339 28.5393 1.27136 28.8567 0.924997 29.257C0.421586 29.9212 1.00715 31.398 1.28281 32.0031C1.55425 32.5151 1.91344 32.9754 2.34407 33.3631C2.51275 33.5344 2.68212 33.705 2.83504 33.8822C3.46425 34.6094 4.09523 35.3346 4.72794 36.0579C6.13513 37.6725 7.59011 39.3397 8.98483 41.0107C10.6185 42.9666 12.1931 43.9183 13.7965 43.9183H13.8673C15.4852 43.8901 17.0322 42.8977 18.5976 40.8847C20.6827 38.2029 22.6498 35.3636 24.5518 32.6148L25.4669 31.295C26.028 30.4883 26.6221 29.5524 26.5715 28.6604C26.5361 28.0362 26.3398 25.9412 25.2877 25.21C24.4134 24.6029 22.6696 24.746 21.588 25.2612C20.6212 25.8385 19.8011 26.6317 19.1922 27.5787L18.9028 27.9542C17.9839 29.1323 17.1018 30.3689 16.2499 31.5641C15.9309 32.0123 15.6127 32.46 15.2911 32.905L15.184 32.8753L14.9379 27.5144C14.7331 23.0386 14.5263 18.5629 14.3176 14.0871C14.2813 13.3205 14.247 12.5547 14.2145 11.7899C14.103 9.23938 13.9875 6.60483 13.7742 4.01426C13.7748 3.58969 13.6912 3.16919 13.5284 2.77706C13.3656 2.38493 13.1268 2.02891 12.8258 1.72954C12.5988 1.54734 12.3369 1.41324 12.0565 1.33539C11.776 1.25754 11.4825 1.23755 11.1941 1.27666C9.3235 1.44403 9.2513 3.24567 9.21717 4.10744C9.18108 4.99546 9.13257 5.88283 9.08597 6.77085C8.98227 8.65583 8.87457 10.6052 8.90213 12.527C8.95398 16.0883 9.0735 19.7067 9.18836 23.2056C9.25399 25.2514 9.32422 27.2965 9.3787 29.343C9.38093 29.9073 9.34995 30.4711 9.28609 31.0318C9.27034 31.1775 9.25662 31.3291 9.24349 31.4879Z" fill="black"/>
</g>
<defs>
<clipPath id="clip0">
<rect width="113.546" height="152.27" fill="white" transform="translate(0.335693 0.948975)"/>
</clipPath>
</defs>
</svg>

<svg xmlns="http://www.w3.org/2000/svg" width="114" height="154" fill="none" viewBox="0 0 114 154"><g fill="#000" clip-path="url(#a)"><path d="M6.79 94.718c.578.525 1.175 1.07 1.697 1.647a162 162 0 0 0 2.8 2.999 60.3 60.3 0 0 1 6.838 8.093 105 105 0 0 1 5.756 10.399c.974 1.925 1.98 3.916 3.034 5.838 2.772 5.048 5.292 9.582 8.078 13.984a21.6 21.6 0 0 0 4.882 5.185 49.5 49.5 0 0 0 13.902 7.631 41.1 41.1 0 0 0 14.477 2.631 50.3 50.3 0 0 0 17.05-3.196 37.26 37.26 0 0 0 21.687-21.651c5.125-13.315 7.113-27.746 6.077-44.117a25.4 25.4 0 0 0-2.177-8.195 11.55 11.55 0 0 0-6.648-6.384 12.07 12.07 0 0 0-9.621.59c-.369.183-.745.35-1.204.556l-.301.135.074-1.514a395 395 0 0 0 .183-3.955q.08-2.07.173-4.14c.37-8.584.753-17.459-.47-26.18-.661-4.707-1.483-9.255-4.242-13.16a9.3 9.3 0 0 0-6.36-3.903 9.32 9.32 0 0 0-7.185 2.014c-.484.388-.928.81-1.357 1.22l-.243.23q-.538-.996-1.058-1.979c-.94-1.772-1.828-3.444-2.854-5.077-1.86-2.962-4.81-4.135-8.538-3.386a9.94 9.94 0 0 0-7.033 5.245 57 57 0 0 0-2.546 5.815c-.263.656-.521 1.32-.788 1.976l-.394-.635a29 29 0 0 0-1.804-2.691c-2.55-3.241-5.9-3.965-9.688-2.093a9.58 9.58 0 0 0-5.18 6.235 24.3 24.3 0 0 0-.925 5.367q-.082 1.8-.17 3.599c-.285 5.99-.581 12.182-.577 18.276.006 7.206.177 14.27.358 21.746q.105 4.368.203 8.808l-.227-.204q-.609-.57-1.275-1.069c-6.622-4.76-13.652-6.458-20.905-5.045a9.71 9.71 0 0 0-7.444 5.988 10.38 10.38 0 0 0 1.609 9.944c.7.88 1.482 1.691 2.336 2.423m31.564-29.15c-.041-1.772-.118-3.58-.192-5.324-.136-3.216-.277-6.542-.202-9.803.152-6.653.564-13.415.961-19.953l.114-1.881c.154-2.542.758-5.005 4.082-5.853 2.143 1.581 3.458 3.926 4.016 7.164.84 4.731 1.435 9.503 1.786 14.296.45 6.59.792 13.3 1.123 19.788q.257 5.054.53 10.112c.043.708.209 1.402.489 2.053a2.793 2.793 0 0 0 3.402 1.711 2.51 2.51 0 0 0 2.12-2.756c-.017-.92.004-1.86.022-2.77a41 41 0 0 0-.098-5.002c-.963-9.517-.43-19.182.087-28.532l.072-1.317q.05-.902.094-1.808a86 86 0 0 1 .722-8.555 33 33 0 0 1 2.018-6.635l.116-.303a6.14 6.14 0 0 1 1.788-2.184c.801-.684 1.42-.968 1.89-.864.448.097.863.566 1.267 1.434l.341.728c1.02 2.166 2.074 4.41 2.429 6.695a144 144 0 0 1 1.826 17.34c.415 12.935.085 22.767-1.07 31.88q-.045.415-.04.831c0 .179-.004.357-.019.59-.099 1.499-.21 3.197 1.81 3.928 1.544.559 4.155-.077 5.21-1.734a7.75 7.75 0 0 0 1.175-3.254l.058-.575c.36-2.941.54-5.901.535-8.865-.148-6.592-.378-13.292-.6-19.772q-.197-5.752-.378-11.504a13.94 13.94 0 0 1 2.925-9.19 3.1 3.1 0 0 1 2.841-1.388 2.79 2.79 0 0 1 2.068 2.02 41 41 0 0 1 2.397 10.01c.463 5.963.478 11.885.451 18.452-.023 5.6-.15 11.296-.274 16.802q-.086 3.872-.163 7.749c-.03 1.618.229 3.236 2.309 4.106 2.647 1.106 3.766.793 5.204-1.465.337-.528.65-1.073.962-1.619a26 26 0 0 1 1.479-2.378c1.603-2.199 3.406-3.304 5.07-3.118s3.154 1.65 4.216 4.12a31.6 31.6 0 0 1 2.2 16.01c-.665 6.243-1.637 13.007-3.058 21.285-.948 5.524-3.353 11.044-7.148 16.403-3.395 4.791-8.584 8.323-15.424 10.491-13.051 4.134-25.714 1.922-37.635-6.577a12.1 12.1 0 0 1-3.008-2.964c-1.767-2.625-3.818-5.759-5.633-9.123a326 326 0 0 1-7.434-14.69c-4.27-8.984-9.57-15.84-16.212-20.972a2 2 0 0 1-.207-.175 27 27 0 0 0-.677-.687c-1.259-1.247-2.448-2.422-1.83-4.392.675-2.16 2.624-2.508 4.68-2.508h.262c7.277.095 12.678 2.83 16.053 8.129a12.4 12.4 0 0 1 1.27 3.334c.09.322.178.643.273.959.428 1.436 1.136 2.934 3.138 3.144 1.633.173 3.088-1.07 3.613-3.085.244-1.007.35-2.043.313-3.078a4291 4291 0 0 0-.505-24.911M9.243 31.488q-.281-.255-.537-.491a15 15 0 0 0-1.859-1.542A7.4 7.4 0 0 0 3.73 28.04a3.53 3.53 0 0 0-2.805 1.218c-.503.664.082 2.141.358 2.746.271.512.63.972 1.061 1.36.169.171.338.342.491.52q.944 1.09 1.893 2.175c1.407 1.614 2.862 3.282 4.257 4.953 1.633 1.956 3.208 2.907 4.812 2.907h.07c1.618-.028 3.165-1.02 4.73-3.033 2.086-2.682 4.053-5.521 5.955-8.27l.915-1.32c.561-.807 1.155-1.743 1.105-2.635-.036-.624-.232-2.719-1.284-3.45-.875-.607-2.618-.464-3.7.051a7.3 7.3 0 0 0-2.396 2.318l-.29.375c-.918 1.178-1.8 2.415-2.652 3.61q-.478.673-.959 1.341l-.107-.03-.246-5.36q-.308-6.714-.62-13.428-.055-1.15-.104-2.297c-.111-2.55-.226-5.185-.44-7.776a3.22 3.22 0 0 0-.948-2.284 2.15 2.15 0 0 0-1.632-.453c-1.87.167-1.943 1.969-1.977 2.83-.036.888-.084 1.776-.131 2.664-.104 1.885-.211 3.834-.184 5.756.052 3.561.172 7.18.286 10.679.066 2.045.136 4.09.19 6.137q.004.847-.092 1.689-.024.217-.043.456"/></g><defs><clipPath id="a"><path fill="#fff" d="M.336.949h113.546v152.27H.336z"/></clipPath></defs></svg>
